X:5
T:Pavan for five viols
%%measurenb 0
%%scale 0.8
%%squarebreve
C:Thomas Weelkes
P:Tenor
M:C|
L:1/4
K:C clef=alto middle=c
G4 G4 |G2 e4 d c | B2 A G ^F3 G | A3 B c d e2 | A2 e4 d c |
B4 A2 D2 | E2 D d2 c/B/ A2 | B4 B4 ::G4 G2 c2-|c2 B A G2 c2| A4 B2 c2|
d2 G2 G2 E>F | G G G/F/E/D/ C>D E2 | E2 e e/d/ c/B/ A E2| F>G A2 F>G A2|A4 A4|
A4 A4 :: z G E G G2 G2 |G c G2 G3 G| A2 F A A2 A2 | A d A2 A3 A|
A4 A3 G | ^F G A d>c B A2 | [M:6/2]G B>A G A/B/ c G2 G4 | G4 G8:|]

